src/DGGeoclicker/skin/dark/img/DGFirmCard__siteIcon_dark.svg

<svg xmlns="http://www.w3.org/2000/svg" width="11" height="11"><path fill-rule="evenodd" clip-rule="evenodd" fill="#A0A0A0" d="M5.5 11c-3.037 0-5.5-2.462-5.5-5.5s2.463-5.5 5.5-5.5 5.5 2.462 5.5 5.5-2.463 5.5-5.5 5.5zm0-9c-1.934 0-3.5 1.567-3.5 3.5s1.566 3.5 3.5 3.5c.155 0 .304-.026.454-.046l-2.954-2.954v-1l2.571-1.714.413-1.237c-.16-.023-.318-.049-.484-.049zm3.449 3h-1.574c-.354.505-.83 1.082-1.375 1.497v2.453c1.693-.245 3-1.688 3-3.45 0-.171-.026-.335-.051-.5z"/></svg>

<svg xmlns="http://www.w3.org/2000/svg" width="11" height="11">
    <path d="M 5.5,11 C 2.463,11 0,8.538 0,5.5 0,2.462 2.463,0 5.5,0 8.537,0 11,2.462 11,5.5 11,8.538 8.537,11 5.5,11 z m 0,-9 C 3.566,2 2,3.567 2,5.5 2,7.433 3.566,9 5.5,9 5.655,9 5.804,8.974 5.954,8.954 L 3,6 V 5 L 5.571,3.286 5.984,2.049 C 5.824,2.026 5.666,2 5.5,2 z M 8.949,5 H 7.375 C 7.021,5.505 6.545,6.082 6,6.497 V 8.95 C 7.693,8.705 9,7.262 9,5.5 9,5.329 8.974,5.165 8.949,5 z" fill="#a0a0a0" fill-rule="evenodd"/>
</svg>
